X:4558
T:Dunkeld Hermitage
R:reel
M:C
L:1/8
K:Em
e |\
"Em"E/E/E B2 GEBE | "D"FdAd FDAF | "Em"E/E/EB2 GEBG | "Bm"AFdF "Em"E/E/E E :|
g |\
"Em"e/e/eg2 bege | "D"d/d/d fd adfd | "Em"e/e/eg2 bege | "Bm"dBdF "Em"E/E/E Eg |
"Em"e/e/eg2 bege | "D"d/d/d fd adfd | "Em"gbfg    efde | "Bm"AFdF "Em"E/E/E E |]
